dist/images/coding/sketch3.svg

<?xml version="1.0" encoding="UTF-8"?><svg width="36" height="36" version="1.1" viewBox="0 0 36 36" xmlns="http://www.w3.org/2000/svg" xmlns:xlink="http://www.w3.org/1999/xlink"><!--Generated by IJSVG (https://github.com/iconjar/IJSVG)--><defs><linearGradient id="a" x1="1.26468" x2="20.9778" gradientUnits="userSpaceOnUse" y1="5.78589" y2="14.9783"><stop offset="0%" stop-color="#FFF" stop-opacity="0.20"></stop><stop offset="100%" stop-color="#FFF" stop-opacity="0"></stop></linearGradient><path id="b" d="M12.0002,0.999871l-6.76403,0.738387l-5.23602,6.75943l12.0003,14.5019l11.9994,-14.5019l-5.23602,-6.75943Z"></path></defs><g transform="scale(1.5)"><use fill="#FDB300" xlink:href="#b"></use><path fill="#EA6C00" d="M0,8.49769l12.0002,14.5024v0l-7.13973,-14.5024Z"></path><path fill="#EA6C00" d="M19.1395,8.49769l-7.13883,14.5024v0l11.9993,-14.5024Z"></path><path fill="#FDD231" d="M5.23617,1.73826l-0.375502,6.75943l7.13953,-7.49782Z"></path><path fill="#FDD231" d="M19.1395,8.49769l-0.375502,-6.75943l-6.76353,-0.738387Z"></path><path fill="#FDAD00" d="M19.1395,8.49769h4.86052l-5.23602,-6.75943Z"></path><path fill="#FDAD00" d="M0,8.49769h4.86052l0.375502,-6.75943Z"></path><path fill="#FEEEB7" d="M12.0002,0.999871l-7.13953,7.49782h14.2786Z"></path><path fill="#FDAD00" d="M4.86047,8.49769l7.13973,14.5024h0.0005l7.13883,-14.5024Z"></path><use fill="url(#a)" xlink:href="#b"></use></g></svg>

<svg width="36" height="36" xmlns="http://www.w3.org/2000/svg" xmlns:xlink="http://www.w3.org/1999/xlink"><defs><linearGradient id="b" x1="1.265" x2="20.978" gradientUnits="userSpaceOnUse" y1="5.786" y2="14.978"><stop offset="0%" stop-color="#FFF" stop-opacity=".2"/><stop offset="100%" stop-color="#FFF" stop-opacity="0"/></linearGradient><path id="a" d="M12 1l-6.764.738L0 8.498 12 23 24 8.498l-5.236-6.76z"/></defs><g transform="scale(1.5)"><use fill="#FDB300" xlink:href="#a"/><path fill="#EA6C00" d="M0 8.498L12 23 4.86 8.498zm19.14 0L12 23 24 8.498z"/><path fill="#FDD231" d="M5.236 1.738l-.375 6.76L12 1zm13.904 6.76l-.376-6.76L12 1z"/><path fill="#FDAD00" d="M19.14 8.498H24l-5.236-6.76zM0 8.498h4.86l.376-6.76z"/><path fill="#FEEEB7" d="M12 1L4.86 8.498h14.28z"/><path fill="#FDAD00" d="M4.86 8.498L12 23l7.14-14.502z"/><use fill="url(#b)" xlink:href="#a"/></g></svg>
